germany/municipalities/07233065.svg

<?xml version="1.0" encoding="UTF-8" standalone="no"?>
<!-- Created with Inkscape (http://www.inkscape.org/) -->

<svg
   xmlns:dc="http://purl.org/dc/elements/1.1/"
   xmlns:cc="http://creativecommons.org/ns#"
   xmlns:rdf="http://www.w3.org/1999/02/22-rdf-syntax-ns#"
   xmlns:svg="http://www.w3.org/2000/svg"
   xmlns="http://www.w3.org/2000/svg"
   xmlns:sodipodi="http://sodipodi.sourceforge.net/DTD/sodipodi-0.dtd"
   xmlns:inkscape="http://www.inkscape.org/namespaces/inkscape"
   width="137.4429mm"
   height="157.86383mm"
   viewBox="0 0 137.4429 157.86383"
   version="1.1"
   id="svg8"
   inkscape:version="0.92.5 (2060ec1f9f, 2020-04-08)"
   sodipodi:docname="DEU Schutz COA.svg">
  <defs
     id="defs2">
    <inkscape:path-effect
       effect="spiro"
       id="path-effect12566-8"
       is_visible="true" />
    <inkscape:path-effect
       effect="spiro"
       id="path-effect13166-1"
       is_visible="true" />
    <inkscape:path-effect
       effect="spiro"
       id="path-effect13014-2"
       is_visible="true" />
    <inkscape:path-effect
       effect="spiro"
       id="path-effect12606-5"
       is_visible="true" />
    <inkscape:path-effect
       effect="spiro"
       id="path-effect13858"
       is_visible="true" />
    <inkscape:path-effect
       effect="spiro"
       id="path-effect12498-4"
       is_visible="true" />
  </defs>
  <sodipodi:namedview
     id="base"
     pagecolor="#ffffff"
     bordercolor="#666666"
     borderopacity="1.0"
     inkscape:pageopacity="0.0"
     inkscape:pageshadow="2"
     inkscape:zoom="1.3290858"
     inkscape:cx="259.73461"
     inkscape:cy="298.32533"
     inkscape:document-units="mm"
     inkscape:current-layer="layer1"
     showgrid="false"
     inkscape:window-width="1920"
     inkscape:window-height="1046"
     inkscape:window-x="-11"
     inkscape:window-y="-11"
     inkscape:window-maximized="1"
     fit-margin-top="0"
     fit-margin-left="0"
     fit-margin-right="0"
     fit-margin-bottom="0"
     inkscape:snap-midpoints="true"
     inkscape:snap-smooth-nodes="true"
     inkscape:snap-nodes="true" />
  <metadata
     id="metadata5">
    <rdf:RDF>
      <cc:Work
         rdf:about="">
        <dc:format>image/svg+xml</dc:format>
        <dc:type
           rdf:resource="http://purl.org/dc/dcmitype/StillImage" />
        <dc:title></dc:title>
      </cc:Work>
    </rdf:RDF>
  </metadata>
  <g
     inkscape:label="Ebene 1"
     inkscape:groupmode="layer"
     id="layer1"
     transform="translate(250.0412,-213.7938)">
    <path
       style="fill:#ff0000;fill-opacity:1;fill-rule:evenodd;stroke:none;stroke-width:1.32291663;stroke-linecap:round;stroke-linejoin:round;stroke-miterlimit:4;stroke-dasharray:none;stroke-opacity:1"
       inkscape:connector-curvature="0"
       d="m -113.25976,214.45526 -0.31118,91.89264 c -1.515,37.54097 -31.4482,64.62726 -67.74881,64.64828 -36.26797,-0.0461 -66.21236,-27.14304 -67.74881,-64.64828 l -0.31118,-91.89264 h 68.05836 z"
       id="path10563-0-6-2-8-7"
       sodipodi:nodetypes="ccccccc" />
    <path
       style="opacity:1;fill:#ffffff;fill-opacity:1;fill-rule:evenodd;stroke:#000000;stroke-width:5;stroke-linecap:round;stroke-linejoin:round;stroke-miterlimit:4;stroke-dasharray:none;stroke-opacity:1;paint-order:markers fill stroke"
       d="M 3.0585938 167.37891 L 3.6757812 349.81055 C 9.4828364 491.56264 122.65858 593.97615 259.73438 594.15039 C 396.93353 594.07094 510.06698 491.69768 515.79297 349.81055 L 516.41016 167.37891 L 3.0585938 167.37891 z "
       transform="matrix(0.26458333,0,0,0.26458333,-250.0412,213.7938)"
       id="rect2336" />
    <path
       style="opacity:1;fill:#009900;fill-opacity:1;fill-rule:evenodd;stroke:#000000;stroke-width:5;stroke-linecap:round;stroke-linejoin:round;stroke-miterlimit:4;stroke-dasharray:none;stroke-opacity:1;paint-order:markers fill stroke"
       d="M 259.73438 220.71094 A 269.71574 293.75844 0 0 0 10.84375 401.46875 C 38.436277 515.78026 139.95763 593.99814 259.73438 594.15039 C 379.50807 594.08104 480.93299 516.04793 508.57617 401.82812 A 269.71574 293.75844 0 0 0 259.73438 220.71094 z "
       transform="matrix(0.26458333,0,0,0.26458333,-250.0412,213.7938)"
       id="path2354" />
    <path
       style="opacity:1;fill:#ffd700;fill-opacity:1;fill-rule:evenodd;stroke:#000000;stroke-width:5;stroke-linecap:round;stroke-linejoin:round;stroke-miterlimit:4;stroke-dasharray:none;stroke-opacity:1;paint-order:markers fill stroke"
       d="M 112.30859 16.105469 L 80.197266 48.216797 L 38.595703 89.818359 L 2.6738281 53.896484 L 2.8925781 118.33789 L 6.484375 121.92969 L 38.59375 154.03906 L 38.595703 154.04102 L 70.707031 121.92969 L 70.705078 121.92773 L 112.30859 80.326172 L 153.91016 121.92969 L 186.02148 154.03906 L 218.13281 121.92969 L 218.13281 121.92773 L 259.73438 80.326172 L 301.33789 121.92969 L 333.44727 154.03906 L 333.44922 154.04102 L 365.56055 121.92969 L 365.55859 121.92773 L 407.16016 80.326172 L 448.76367 121.92969 L 480.87305 154.03906 L 480.875 154.04102 L 512.98633 121.92969 L 512.98438 121.92773 L 516.57617 118.33594 L 516.79492 53.898438 L 480.875 89.818359 L 439.27148 48.214844 L 407.16211 16.105469 L 375.05078 48.216797 L 333.44922 89.818359 L 291.8457 48.214844 L 259.73438 16.105469 L 227.625 48.216797 L 186.02148 89.818359 L 144.41992 48.214844 L 112.30859 16.105469 z "
       transform="matrix(0.26458333,0,0,0.26458333,-250.0412,213.7938)"
       id="rect2401" />
    <path
       style="fill:none;fill-rule:evenodd;stroke:#000000;stroke-width:1.32291663;stroke-linecap:round;stroke-linejoin:round;stroke-miterlimit:4;stroke-dasharray:none;stroke-opacity:1"
       inkscape:connector-curvature="0"
       d="m -113.25976,214.45526 -0.31118,91.89264 c -1.515,37.54097 -31.4482,64.62726 -67.74881,64.64828 -36.26796,-0.0461 -66.21236,-27.14304 -67.74881,-64.64828 l -0.31118,-91.89264 h 68.05836 z"
       id="path10563-0-6-2-8"
       sodipodi:nodetypes="ccccccc" />
    <path
       style="opacity:1;fill:#ffffff;fill-opacity:1;fill-rule:evenodd;stroke:#00000a;stroke-width:1.32291675;stroke-linecap:round;stroke-linejoin:round;stroke-miterlimit:4;stroke-dasharray:none;stroke-opacity:1;paint-order:markers fill stroke"
       d="m -181.33299,286.30824 a 35.811626,35.811626 0 0 0 -6.9696,0.71933 l 3.49953,7.06365 a 28.654946,28.654946 0 0 0 -7.73493,2.05104 l -0.50178,-7.87135 a 35.811626,35.811626 0 0 0 -6.39341,2.89078 35.811626,35.811626 0 0 0 -5.67614,4.10776 l 6.57221,4.37441 a 28.654946,28.654946 0 0 0 -5.66064,5.64823 l -4.36975,-6.56549 a 35.811626,35.811626 0 0 0 -4.10725,5.67666 35.811626,35.811626 0 0 0 -2.89078,6.3934 l 7.90185,0.50333 a 28.654946,28.654946 0 0 0 -2.07068,7.73906 l -7.07502,-3.50521 a 35.811626,35.811626 0 0 0 -0.71882,6.9696 35.811626,35.811626 0 0 0 0.6935,6.98252 l 7.08742,-3.51141 a 28.654946,28.654946 0 0 0 2.04794,7.73493 l -7.84448,0.50022 a 35.811626,35.811626 0 0 0 2.86236,6.39548 35.811626,35.811626 0 0 0 4.09173,5.69991 l 4.38888,-6.59495 a 28.654946,28.654946 0 0 0 5.65651,5.67098 l -6.56498,4.36924 a 35.811626,35.811626 0 0 0 5.67614,4.10776 35.811626,35.811626 0 0 0 6.39393,2.89026 l 0.50332,-7.90081 a 28.654946,28.654946 0 0 0 7.73855,2.07016 l -3.50521,7.07502 a 35.811626,35.811626 0 0 0 6.9696,0.71934 35.811626,35.811626 0 0 0 6.98252,-0.69402 l -3.51142,-7.08742 a 28.654946,28.654946 0 0 0 7.73545,-2.04742 l 0.49971,7.84345 a 35.811626,35.811626 0 0 0 6.39548,-2.86185 35.811626,35.811626 0 0 0 5.6999,-4.09225 l -6.59442,-4.38888 a 28.654946,28.654946 0 0 0 5.67769,-5.66632 l 4.38422,6.58771 a 35.811626,35.811626 0 0 0 4.09226,-5.69991 35.811626,35.811626 0 0 0 2.86184,-6.39599 l -7.87342,-0.50178 a 28.654946,28.654946 0 0 0 2.06551,-7.73855 l 7.09931,3.5171 a 35.811626,35.811626 0 0 0 0.69401,-6.98252 35.811626,35.811626 0 0 0 -0.71985,-6.9696 l -7.06365,3.49953 a 28.654946,28.654946 0 0 0 -2.05104,-7.73493 l 7.87084,-0.50126 a 35.811626,35.811626 0 0 0 -2.89027,-6.39392 35.811626,35.811626 0 0 0 -4.10776,-5.67614 l -4.37441,6.57169 a 28.654946,28.654946 0 0 0 -5.65856,-5.66736 l 6.5877,-4.38474 a 35.811626,35.811626 0 0 0 -5.6999,-4.09174 35.811626,35.811626 0 0 0 -6.39548,-2.86184 l -0.50178,7.87394 a 28.654946,28.654946 0 0 0 -7.73906,-2.06655 l 3.5171,-7.09879 a 35.811626,35.811626 0 0 0 -6.98252,-0.69349 z m -3.58118,13.63844 v 14.76757 h 7.17527 v -14.75258 a 22.859723,22.859723 0 0 1 18.97559,18.9606 h -14.76757 v 7.17527 h 14.75258 a 22.859723,22.859723 0 0 1 -18.9606,18.97558 v -14.76705 h -7.17527 v 14.75207 a 22.859723,22.859723 0 0 1 -18.97559,-18.9606 h 14.76758 v -7.17527 h -14.75259 a 22.859723,22.859723 0 0 1 18.9606,-18.97559 z"
       id="path2500"
       inkscape:connector-curvature="0" />
    <path
       style="opacity:1;fill:#ffffff;fill-opacity:1;fill-rule:evenodd;stroke:#00000a;stroke-width:1.32291675;stroke-linecap:round;stroke-linejoin:round;stroke-miterlimit:4;stroke-dasharray:none;stroke-opacity:1;paint-order:markers fill stroke"
       d="m -181.32653,311.93045 a 10.579379,10.579379 0 0 0 -10.5792,10.57919 10.579379,10.579379 0 0 0 10.5792,10.57972 10.579379,10.579379 0 0 0 10.57971,-10.57972 10.579379,10.579379 0 0 0 -10.57971,-10.57919 z m 0,5.65753 a 4.9221411,4.9221411 0 0 1 4.92218,4.92166 4.9221411,4.9221411 0 0 1 -4.92218,4.92218 4.9221411,4.9221411 0 0 1 -4.92166,-4.92218 4.9221411,4.9221411 0 0 1 4.92166,-4.92166 z"
       id="path2500-0-9"
       inkscape:connector-curvature="0" />
  </g>
</svg>

<svg xmlns="http://www.w3.org/2000/svg" width="519.469" height="596.651" viewBox="0 0 137.443 157.864"><path style="fill:red;fill-opacity:1;fill-rule:evenodd;stroke:none;stroke-width:1.32291663;stroke-linecap:round;stroke-linejoin:round;stroke-miterlimit:4;stroke-dasharray:none;stroke-opacity:1" d="m-113.26 214.455-.31 91.893c-1.516 37.54-31.45 64.627-67.75 64.648-36.268-.046-66.212-27.143-67.749-64.648l-.31-91.893h68.058z" transform="translate(250.041 -213.794)"/><path style="opacity:1;fill:#fff;fill-opacity:1;fill-rule:evenodd;stroke:#000;stroke-width:5;stroke-linecap:round;stroke-linejoin:round;stroke-miterlimit:4;stroke-dasharray:none;stroke-opacity:1;paint-order:markers fill stroke" d="m3.059 167.379.617 182.432c5.807 141.752 118.983 244.165 256.058 244.34 137.2-.08 250.333-102.453 256.059-244.34l.617-182.432H3.06z" transform="scale(.26458)"/><path style="opacity:1;fill:#090;fill-opacity:1;fill-rule:evenodd;stroke:#000;stroke-width:5;stroke-linecap:round;stroke-linejoin:round;stroke-miterlimit:4;stroke-dasharray:none;stroke-opacity:1;paint-order:markers fill stroke" d="M259.734 220.71A269.716 293.758 0 0 0 10.844 401.47c27.592 114.311 129.114 192.53 248.89 192.681 119.774-.069 221.199-78.102 248.842-192.322a269.716 293.758 0 0 0-248.842-181.117z" transform="scale(.26458)"/><path style="opacity:1;fill:gold;fill-opacity:1;fill-rule:evenodd;stroke:#000;stroke-width:5;stroke-linecap:round;stroke-linejoin:round;stroke-miterlimit:4;stroke-dasharray:none;stroke-opacity:1;paint-order:markers fill stroke" d="M112.309 16.105 80.197 48.217 38.596 89.818 2.674 53.896l.219 64.442 3.591 3.592 32.11 32.11.002.001 32.111-32.111-.002-.002 41.604-41.602 41.601 41.604 32.111 32.11 32.112-32.11v-.002l41.601-41.602 41.604 41.604 32.11 32.11.001.001 32.112-32.111-.002-.002 41.601-41.602 41.604 41.604 32.109 32.11.002.001 32.111-32.111-.002-.002 3.592-3.592.219-64.438-35.92 35.92-41.604-41.603-32.109-32.11-32.111 32.112-41.602 41.601-41.603-41.603-32.112-32.11-32.109 32.112-41.604 41.601-41.601-41.603-32.111-32.11z" transform="scale(.26458)"/><path style="fill:none;fill-rule:evenodd;stroke:#000;stroke-width:1.32291663;stroke-linecap:round;stroke-linejoin:round;stroke-miterlimit:4;stroke-dasharray:none;stroke-opacity:1" d="m-113.26 214.455-.31 91.893c-1.516 37.54-31.45 64.627-67.75 64.648-36.268-.046-66.212-27.143-67.749-64.648l-.31-91.893h68.058z" transform="translate(250.041 -213.794)"/><path style="opacity:1;fill:#fff;fill-opacity:1;fill-rule:evenodd;stroke:#00000a;stroke-width:1.32291675;stroke-linecap:round;stroke-linejoin:round;stroke-miterlimit:4;stroke-dasharray:none;stroke-opacity:1;paint-order:markers fill stroke" d="M-181.333 286.308a35.812 35.812 0 0 0-6.97.72l3.5 7.063a28.655 28.655 0 0 0-7.735 2.051l-.502-7.871a35.812 35.812 0 0 0-6.393 2.89 35.812 35.812 0 0 0-5.676 4.108l6.572 4.375a28.655 28.655 0 0 0-5.66 5.648l-4.37-6.565a35.812 35.812 0 0 0-4.108 5.676 35.812 35.812 0 0 0-2.89 6.394l7.901.503a28.655 28.655 0 0 0-2.07 7.74l-7.075-3.506a35.812 35.812 0 0 0-.72 6.97 35.812 35.812 0 0 0 .694 6.982l7.088-3.511a28.655 28.655 0 0 0 2.048 7.734l-7.845.5a35.812 35.812 0 0 0 2.863 6.396 35.812 35.812 0 0 0 4.091 5.7l4.39-6.595a28.655 28.655 0 0 0 5.656 5.671l-6.565 4.37a35.812 35.812 0 0 0 5.676 4.107 35.812 35.812 0 0 0 6.394 2.89l.503-7.9a28.655 28.655 0 0 0 7.739 2.07l-3.506 7.075a35.812 35.812 0 0 0 6.97.72 35.812 35.812 0 0 0 6.983-.695l-3.512-7.087a28.655 28.655 0 0 0 7.736-2.048l.5 7.844a35.812 35.812 0 0 0 6.395-2.862 35.812 35.812 0 0 0 5.7-4.092l-6.595-4.39a28.655 28.655 0 0 0 5.678-5.666l4.384 6.588a35.812 35.812 0 0 0 4.092-5.7 35.812 35.812 0 0 0 2.862-6.396l-7.873-.502a28.655 28.655 0 0 0 2.065-7.738l7.1 3.517a35.812 35.812 0 0 0 .694-6.983 35.812 35.812 0 0 0-.72-6.97l-7.064 3.5a28.655 28.655 0 0 0-2.05-7.735l7.87-.5a35.812 35.812 0 0 0-2.89-6.395 35.812 35.812 0 0 0-4.108-5.676l-4.374 6.572a28.655 28.655 0 0 0-5.659-5.668l6.588-4.384a35.812 35.812 0 0 0-5.7-4.092 35.812 35.812 0 0 0-6.396-2.862l-.502 7.874a28.655 28.655 0 0 0-7.739-2.066l3.518-7.1a35.812 35.812 0 0 0-6.983-.693zm-3.581 13.639v14.767h7.175v-14.752a22.86 22.86 0 0 1 18.976 18.96h-14.768v7.176h14.753a22.86 22.86 0 0 1-18.96 18.975v-14.767h-7.176v14.752a22.86 22.86 0 0 1-18.976-18.96h14.768v-7.176h-14.753a22.86 22.86 0 0 1 18.96-18.975z" transform="translate(250.041 -213.794)"/><path style="opacity:1;fill:#fff;fill-opacity:1;fill-rule:evenodd;stroke:#00000a;stroke-width:1.32291675;stroke-linecap:round;stroke-linejoin:round;stroke-miterlimit:4;stroke-dasharray:none;stroke-opacity:1;paint-order:markers fill stroke" d="M-181.327 311.93a10.58 10.58 0 0 0-10.579 10.58 10.58 10.58 0 0 0 10.58 10.58 10.58 10.58 0 0 0 10.58-10.58 10.58 10.58 0 0 0-10.58-10.58zm0 5.658a4.922 4.922 0 0 1 4.923 4.922 4.922 4.922 0 0 1-4.923 4.922 4.922 4.922 0 0 1-4.921-4.922 4.922 4.922 0 0 1 4.921-4.922z" transform="translate(250.041 -213.794)"/></svg>
